X: 40507
T: Tommy Darling
R: reel
M: 4/4
K: Gmajor
BA|G2 DG BDGB|d>cBc A3 G|F2 DF AFAc|e>d^cd B2
BA|GB,DG Bgfg|a>gec A2 f>e|d2 ^cd =cAFD|G2 G>A G2:|
Bc|d2 Bd b>gdB|fAAB c2 AB|c2 Ac a>fdc|cBBc d2
Bc|d2 ef g2 b2|a>gec A2 f>e|d2 ^cd =cAFD|G2 G>A G2:|

